X:0248
T:The Millers Daughter.
M:C|
L:1/8
Q:1/2=100
I: :: ::
Z:Jack Campin * www.campin.me.uk * 2009
K:D Mixolydian
g|d/d/d dc Bcdc|B/c/d Gd e2 dg   |d/d/d dc BcdB|A/A/A Bd Te2 d:|
e|gdge     dBGf|gdeg    Te2 de/f/|gdge     dBge|dBAB     Te2 d:|
<end>
<start>
